Numix-GalliumOS/16/mimetypes/text-x-go.svg

<?xml version="1.0" encoding="UTF-8" standalone="no"?>
<svg
   xmlns:dc="http://purl.org/dc/elements/1.1/"
   xmlns:cc="http://creativecommons.org/ns#"
   xmlns:rdf="http://www.w3.org/1999/02/22-rdf-syntax-ns#"
   xmlns:svg="http://www.w3.org/2000/svg"
   xmlns="http://www.w3.org/2000/svg"
   xmlns:sodipodi="http://sodipodi.sourceforge.net/DTD/sodipodi-0.dtd"
   xmlns:inkscape="http://www.inkscape.org/namespaces/inkscape"
   width="16"
   height="16"
   viewBox="0 0 16 16"
   id="svg2"
   version="1.1"
   inkscape:version="0.91 r13725"
   sodipodi:docname="text-x-go.svg">
  <metadata
     id="metadata34">
    <rdf:RDF>
      <cc:Work
         rdf:about="">
        <dc:format>image/svg+xml</dc:format>
        <dc:type
           rdf:resource="http://purl.org/dc/dcmitype/StillImage" />
        <dc:title />
      </cc:Work>
    </rdf:RDF>
  </metadata>
  <defs
     id="defs32" />
  <sodipodi:namedview
     pagecolor="#ffffff"
     bordercolor="#666666"
     borderopacity="1"
     objecttolerance="10"
     gridtolerance="10"
     guidetolerance="10"
     inkscape:pageopacity="0"
     inkscape:pageshadow="2"
     inkscape:window-width="1366"
     inkscape:window-height="704"
     id="namedview30"
     showgrid="true"
     inkscape:zoom="45.254834"
     inkscape:cx="7.1251292"
     inkscape:cy="6.2934085"
     inkscape:window-x="0"
     inkscape:window-y="27"
     inkscape:window-maximized="1"
     inkscape:current-layer="svg2">
    <inkscape:grid
       type="xygrid"
       id="grid3018" />
  </sodipodi:namedview>
  <path
     style="fill:#70c9dc;fill-opacity:1"
     d="M 2.667969,-4.46e-4 C 2.324219,-4.46e-4 2,0.337812 2,0.6964467 L 2,15.303108 C 2,15.641365 2.34375,16 2.667969,16 l 10.664062,0 C 13.65625,16 14,15.641365 14,15.303108 L 14,3.9995538 9.9999999,-4.46e-4 z"
     id="path4-2"
     inkscape:connector-curvature="0"
     sodipodi:nodetypes="ssssssccs" />
  <g
     style="fill:#ffffff"
     id="g10"
     transform="matrix(1.3331238,0,0,1.3395672,-2.665153,-3.0709949)" />
  <path
     style="fill:#000000;fill-opacity:0.19599998"
     d="m 10.583223,3.3315848 0.0154,0.01953 0.04005,-0.01953 z m 0.02978,0.667969 3.387,3.664062 0,-3.664062 z"
     id="path6"
     inkscape:connector-curvature="0"
     sodipodi:nodetypes="cccccccc" />
  <g
     style="fill:none;stroke:#ffffff"
     id="g20"
     transform="matrix(1.3331238,0,0,1.3395672,-2.665153,-3.0709949)">
    <g
       style="stroke-width:2"
       id="g22" />
  </g>
  <path
     style="fill:#ffffff;fill-opacity:0.39200003"
     d="m 9.9999999,-4.46e-4 3.9963961,3.9999998 -3.383784,0 c -0.299099,0 -0.6126121,-0.317117 -0.6126121,-0.616216 z"
     id="path8"
     inkscape:connector-curvature="0"
     sodipodi:nodetypes="ccssc" />
  <text
     xml:space="preserve"
     style="font-style:normal;font-weight:normal;font-size:45.23287582px;line-height:125%;font-family:sans-serif;letter-spacing:0px;word-spacing:0px;fill:#000000;fill-opacity:1;stroke:none;stroke-width:1px;stroke-linecap:butt;stroke-linejoin:miter;stroke-opacity:1"
     x="4.0179896"
     y="11.308219"
     id="text4140"
     sodipodi:linespacing="125%"
     transform="scale(1.1308219,0.88431258)"><tspan
       sodipodi:role="line"
       id="tspan4142"
       x="4.0179896"
       y="11.308219"
       style="font-style:normal;font-variant:normal;font-weight:normal;font-stretch:normal;font-size:5.65410948px;font-family:Allan;-inkscape-font-specification:Allan" /></text>
  <path
     style="opacity:1;fill:#ffffff;fill-opacity:1;stroke:none;stroke-width:1.5;stroke-linecap:round;stroke-linejoin:round;stroke-miterlimit:4;stroke-dasharray:none;stroke-opacity:1"
     d="M 5.75,5.5 C 4.783502,5.5 4,6.283502 4,7.25 4,8.216498 4.783502,9 5.75,9 6.716498,9 7.5,8.216498 7.5,7.25 7.5,6.283502 6.716498,5.5 5.75,5.5 Z M 5.0999997,6.9166665 c 0.3221665,0 0.5833335,0.261168 0.5833335,0.5833335 0,0.322167 -0.261167,0.5833335 -0.5833335,0.5833335 -0.322166,0 -0.5833329,-0.2611665 -0.5833329,-0.5833335 0,-0.3221655 0.261167,-0.5833335 0.5833329,-0.5833335 z"
     id="path4172"
     inkscape:connector-curvature="0"
     sodipodi:nodetypes="ssssssssss" />
  <path
     style="opacity:1;fill:#ffffff;fill-opacity:1;stroke:none;stroke-width:1.5;stroke-linecap:round;stroke-linejoin:round;stroke-miterlimit:4;stroke-dasharray:none;stroke-opacity:1"
     d="M 10.25,5.5 C 9.283502,5.5 8.5,6.283502 8.5,7.25 8.5,8.216498 9.283502,9 10.25,9 11.216497,9 12,8.216498 12,7.25 12,6.283502 11.216497,5.5 10.25,5.5 Z M 9.9499984,6.9166665 c 0.3221676,0 0.5833346,0.261168 0.5833346,0.5833335 0,0.322167 -0.261167,0.5833335 -0.5833346,0.5833335 C 9.627834,8.0833335 9.3666669,7.822167 9.3666669,7.5 c 0,-0.3221655 0.2611671,-0.5833335 0.5833315,-0.5833335 z"
     id="circle4174"
     inkscape:connector-curvature="0"
     sodipodi:nodetypes="ssssssssss" />
  <rect
     style="opacity:1;fill:#ffffff;fill-opacity:1;stroke:none;stroke-width:1.5;stroke-linecap:round;stroke-linejoin:round;stroke-miterlimit:4;stroke-dasharray:none;stroke-opacity:1"
     id="rect4180"
     width="1"
     height="2"
     x="7.9999986"
     y="11"
     ry="0.5" />
  <rect
     style="opacity:1;fill:#ffffff;fill-opacity:1;stroke:none;stroke-width:1.5;stroke-linecap:round;stroke-linejoin:round;stroke-miterlimit:4;stroke-dasharray:none;stroke-opacity:1"
     id="rect4182"
     width="1"
     height="2"
     x="7.0000005"
     y="11"
     ry="0.5" />
  <path
     style="opacity:1;fill:#ffffff;fill-opacity:1;stroke:none;stroke-width:1.5;stroke-linecap:round;stroke-linejoin:round;stroke-miterlimit:4;stroke-dasharray:none;stroke-opacity:1"
     d="M 8 9 A 1 0.5 0 0 0 7 9.5 L 9 9.5 A 1 0.5 0 0 0 8 9 z M 9 9.5 A 1 0.5 0 0 1 8 10 A 1 0.5 0 0 1 7 9.5 C 6.446 9.5 6 9.9459996 6 10.5 C 6 11.054 6.446 11.5 7 11.5 L 9 11.5 C 9.554 11.5 10 11.054 10 10.5 C 10 9.9459996 9.554 9.5 9 9.5 z "
     id="rect4177" />
</svg>

<svg xmlns="http://www.w3.org/2000/svg" viewBox="0 0 16 16">
 <path d="m 2.668 0 c -0.344 0 -0.668 0.338 -0.668 0.697 l 0 14.607 c 0 0.338 0.344 0.697 0.668 0.697 l 10.664 0 c 0.324 0 0.668 -0.359 0.668 -0.697 l 0 -11.304 -4 -4 z" style="fill:#70c9dc;fill-opacity:1"/>
 <path d="m 10.583 3.332 0.015 0.02 0.04 -0.02 z m 0.03 0.668 3.387 3.664 0 -3.664 z" style="fill:#000;fill-opacity:0.196"/>
 <path d="m 10 0 3.996 4 -3.384 0 c -0.299 0 -0.613 -0.317 -0.613 -0.616 z" style="fill:#fff;fill-opacity:0.392"/>
 <path d="m 5.75 5.5 c -0.966 0 -1.75 0.784 -1.75 1.75 0 0.966 0.784 1.75 1.75 1.75 0.966 0 1.75 -0.784 1.75 -1.75 0 -0.966 -0.784 -1.75 -1.75 -1.75 m -0.65 1.417 c 0.322 0 0.583 0.261 0.583 0.583 0 0.322 -0.261 0.583 -0.583 0.583 -0.322 0 -0.583 -0.261 -0.583 -0.583 0 -0.322 0.261 -0.583 0.583 -0.583 z" style="fill:#fff;opacity:1;fill-opacity:1;stroke:none"/>
 <path d="m 10.25 5.5 c -0.966 0 -1.75 0.784 -1.75 1.75 0 0.966 0.784 1.75 1.75 1.75 0.966 0 1.75 -0.784 1.75 -1.75 0 -0.966 -0.784 -1.75 -1.75 -1.75 m -0.3 1.417 c 0.322 0 0.583 0.261 0.583 0.583 0 0.322 -0.261 0.583 -0.583 0.583 c -0.322 0 -0.583 -0.261 -0.583 -0.583 c 0 -0.322 0.261 -0.583 0.583 -0.583 z" style="fill:#fff;opacity:1;fill-opacity:1;stroke:none"/>
 <rect width="1" height="2" x="8" y="11" rx="0.5" style="fill:#fff;opacity:1;fill-opacity:1;stroke:none"/>
 <rect width="1" height="2" x="7" y="11" rx="0.5" style="fill:#fff;opacity:1;fill-opacity:1;stroke:none"/>
 <path d="M 8 9 A 1 0.5 0 0 0 7 9.5 L 9 9.5 A 1 0.5 0 0 0 8 9 z M 9 9.5 A 1 0.5 0 0 1 8 10 A 1 0.5 0 0 1 7 9.5 C 6.446 9.5 6 9.946 6 10.5 C 6 11.05 6.446 11.5 7 11.5 L 9 11.5 C 9.554 11.5 10 11.05 10 10.5 C 10 9.946 9.554 9.5 9 9.5 z" style="fill:#fff;opacity:1;fill-opacity:1;stroke:none"/>
</svg>
